assets/Softball/Flat/softball_flat.svg

<svg width="32" height="32" viewBox="0 0 32 32" fill="none" xmlns="http://www.w3.org/2000/svg">
<path d="M16 30C23.732 30 30 23.732 30 16C30 8.26801 23.732 2 16 2C8.26801 2 2 8.26801 2 16C2 23.732 8.26801 30 16 30Z" fill="#C3EF3C"/>
<path d="M29.9728 16.8804C29.952 17.2156 29.9194 17.5475 29.8754 17.8759C21.6324 16.9066 15.0933 10.3676 14.1241 2.12459C14.4524 2.08061 14.7844 2.04802 15.1196 2.02722C16.0427 9.79568 22.2043 15.9573 29.9728 16.8804Z" fill="#636363"/>
<path d="M16.8804 29.9728C15.9573 22.2043 9.79568 16.0427 2.02722 15.1196C2.04802 14.7845 2.08061 14.4525 2.12459 14.1241C10.3676 15.0934 16.9066 21.6324 17.8759 29.8754C17.5475 29.9194 17.2155 29.952 16.8804 29.9728Z" fill="#636363"/>
<path d="M18.5703 11.5912C18.6099 11.3933 18.7646 11.2386 18.9626 11.199L20.7303 10.8455C21.0011 10.7913 21.2645 10.9669 21.3187 11.2377C21.3728 11.5085 21.1972 11.7719 20.9265 11.826L19.4856 12.1142L19.1974 13.5551C19.1432 13.8259 18.8798 14.0015 18.609 13.9474C18.3382 13.8932 18.1626 13.6298 18.2168 13.359L18.5703 11.5912Z" fill="#F8312F"/>
<path d="M22.4822 14.9831C22.4692 14.7817 22.5786 14.5922 22.7596 14.5027L24.3756 13.7037C24.6231 13.5813 24.923 13.6827 25.0454 13.9303C25.1678 14.1778 25.0663 14.4777 24.8188 14.6001L23.5016 15.2514L23.5962 16.7178C23.6139 16.9933 23.4049 17.2311 23.1294 17.2489C22.8538 17.2667 22.616 17.0577 22.5982 16.7821L22.4822 14.9831Z" fill="#F8312F"/>
<path d="M26.9798 17.1167C26.9064 16.9287 26.9531 16.7149 27.0984 16.5748L28.3958 15.3231C28.5946 15.1314 28.9111 15.1371 29.1028 15.3358C29.2946 15.5346 29.2889 15.8511 29.0901 16.0428L28.0326 17.0631L28.5676 18.4317C28.6681 18.6888 28.5411 18.9788 28.2839 19.0794C28.0267 19.1799 27.7367 19.0529 27.6362 18.7957L26.9798 17.1167Z" fill="#F8312F"/>
<path d="M15.9758 7.77834C16.0653 7.5974 16.2548 7.488 16.4562 7.50099L18.2552 7.61702C18.5308 7.63479 18.7398 7.87259 18.722 8.14816C18.7042 8.42373 18.4664 8.63272 18.1909 8.61495L16.7245 8.52037L16.0732 9.8376C15.9508 10.0851 15.6509 10.1866 15.4034 10.0642C15.1558 9.94179 15.0544 9.64191 15.1768 9.39437L15.9758 7.77834Z" fill="#F8312F"/>
<path d="M14.5606 3.263C14.6911 3.10907 14.9015 3.04876 15.0938 3.11009L16.8113 3.65783C17.0744 3.74173 17.2197 4.02302 17.1358 4.28611C17.0519 4.54919 16.7706 4.69445 16.5075 4.61055L15.1075 4.16409L14.1569 5.28466C13.9783 5.49524 13.6628 5.52113 13.4522 5.3425C13.2416 5.16386 13.2157 4.84834 13.3944 4.63776L14.5606 3.263Z" fill="#F8312F"/>
<path d="M11.5703 19.3413C11.6099 19.1434 11.7646 18.9886 11.9626 18.9491L13.7303 18.5955C14.0011 18.5414 14.2645 18.717 14.3187 18.9877C14.3729 19.2585 14.1972 19.5219 13.9265 19.5761L12.4856 19.8643L12.1974 21.3052C12.1432 21.576 11.8798 21.7516 11.609 21.6974C11.3382 21.6433 11.1626 21.3798 11.2168 21.1091L11.5703 19.3413Z" fill="#F8312F"/>
<path d="M14.6008 22.7784C14.6903 22.5975 14.8798 22.4881 15.0812 22.5011L16.8802 22.6171C17.1558 22.6348 17.3648 22.8726 17.347 23.1482C17.3292 23.4238 17.0914 23.6328 16.8159 23.615L15.3495 23.5204L14.6982 24.8377C14.5758 25.0852 14.2759 25.1866 14.0284 25.0642C13.7808 24.9419 13.6794 24.642 13.8018 24.3944L14.6008 22.7784Z" fill="#F8312F"/>
<path d="M16.5323 27.0454C16.6675 26.8955 16.8795 26.8416 17.0699 26.9087L18.7701 27.508C19.0306 27.5998 19.1673 27.8854 19.0755 28.1458C18.9837 28.4062 18.6981 28.5429 18.4377 28.4511L17.0518 27.9626L16.0679 29.054C15.8829 29.2591 15.5668 29.2754 15.3617 29.0905C15.1566 28.9056 15.1402 28.5894 15.3252 28.3843L16.5323 27.0454Z" fill="#F8312F"/>
<path d="M7.75101 16.5751C7.73802 16.3737 7.84742 16.1842 8.02836 16.0948L9.64439 15.2957C9.89193 15.1733 10.1918 15.2748 10.3142 15.5223C10.4366 15.7698 10.3352 16.0697 10.0876 16.1921L8.77039 16.8434L8.86497 18.3098C8.88274 18.5854 8.67375 18.8232 8.39818 18.841C8.12261 18.8587 7.88481 18.6497 7.86704 18.3742L7.75101 16.5751Z" fill="#F8312F"/>
<path d="M3.05258 15.0737C2.97148 14.8888 3.00948 14.6734 3.14891 14.5274L4.39419 13.2238C4.58493 13.0242 4.90143 13.0169 5.10111 13.2077C5.30078 13.3984 5.30802 13.7149 5.11727 13.9146L4.10224 14.9771L4.69265 16.3227C4.8036 16.5756 4.68855 16.8706 4.43568 16.9815C4.18281 17.0925 3.88787 16.9774 3.77692 16.7245L3.05258 15.0737Z" fill="#F8312F"/>
</svg>

<svg xmlns="http://www.w3.org/2000/svg" width="32" height="32" fill="none"><path fill="#C3EF3C" d="M16 30c7.732 0 14-6.268 14-14S23.732 2 16 2 2 8.268 2 16s6.268 14 14 14Z"/><path fill="#636363" d="M29.973 16.88c-.021.336-.054.668-.098.996-8.243-.97-14.782-7.508-15.75-15.751.327-.044.66-.077.995-.098.923 7.769 7.084 13.93 14.853 14.853ZM16.88 29.973c-.923-7.769-7.084-13.93-14.853-14.853.021-.335.054-.667.098-.996 8.243.97 14.782 7.508 15.75 15.751-.328.044-.66.077-.995.098Z"/><path fill="#F8312F" d="M18.57 11.591a.5.5 0 0 1 .393-.392l1.767-.354a.5.5 0 1 1 .197.981l-1.441.288-.289 1.441a.5.5 0 0 1-.98-.196l.353-1.768ZM22.482 14.983a.5.5 0 0 1 .278-.48l1.616-.8a.5.5 0 1 1 .443.897l-1.317.651.094 1.467a.5.5 0 0 1-.998.064l-.116-1.799ZM26.98 17.117a.5.5 0 0 1 .118-.542l1.298-1.252a.5.5 0 0 1 .694.72l-1.057 1.02.535 1.369a.5.5 0 0 1-.932.364l-.656-1.68ZM15.976 7.778a.5.5 0 0 1 .48-.277l1.8.116a.5.5 0 1 1-.065.998l-1.466-.095-.652 1.318a.5.5 0 0 1-.896-.444l.799-1.616ZM14.56 3.263a.5.5 0 0 1 .534-.153l1.717.548a.5.5 0 1 1-.303.953l-1.4-.447-.951 1.12a.5.5 0 1 1-.763-.646l1.167-1.375ZM11.57 19.341a.5.5 0 0 1 .393-.392l1.767-.354a.5.5 0 0 1 .197.981l-1.441.288-.289 1.441a.5.5 0 0 1-.98-.196l.353-1.768ZM14.6 22.778a.5.5 0 0 1 .481-.277l1.8.116a.5.5 0 1 1-.065.998l-1.466-.095-.652 1.318a.5.5 0 0 1-.896-.444l.799-1.616ZM16.532 27.045a.5.5 0 0 1 .538-.136l1.7.599a.5.5 0 1 1-.332.943l-1.386-.488-.984 1.091a.5.5 0 0 1-.743-.67l1.207-1.339ZM7.751 16.575a.5.5 0 0 1 .277-.48l1.616-.8a.5.5 0 0 1 .444.897l-1.318.651.095 1.467a.5.5 0 0 1-.998.064l-.116-1.799ZM3.053 15.074a.5.5 0 0 1 .096-.547l1.245-1.303a.5.5 0 0 1 .723.69l-1.015 1.063.59 1.346a.5.5 0 1 1-.915.401l-.724-1.65Z"/></svg>
